X: 34750
T: Road To Lisdoonvarna, The
R: slide
M: 12/8
K: Ddorian
c|:"Dm"d2a a2g a2b c'3|"C"e2g gag c2d edc|
"Dm"d2a a2g a2b c'3|"C"bc'b a2g "Dm"a2d d3:|
|:"Dm"d'2e' f'e'd' "Am"c'2a abc'|"G"b2g gab "Am"c'2a a3|
"Dm"d'2e' f'e'd' "Am"c'2a abc'|"G"bc'b a2g "Dm"a2d d3:|

